public/images/icon-campfire--leaf.svg

<svg width="22" height="24" viewBox="0 0 22 24" fill="none" xmlns="http://www.w3.org/2000/svg">
<path d="M9.65625 0L12.375 2.71875L13.7344 1.35938C17.0156 4.07812 17.8125 7.03125 17.8125 8.20312C17.8125 11.9531 14.7656 15 11.0156 15C7.21875 15 4.17188 11.9531 4.17188 8.20312C4.17188 4.35938 7.82812 1.125 9.65625 0ZM13.7344 10.2188C13.7344 8.20312 11.0156 6.14062 11.0156 6.14062C11.0156 6.14062 8.25 8.20312 8.25 10.2188C8.25 11.7656 9.51562 12.9844 11.0156 12.9844C12.5156 12.9844 13.7344 11.7188 13.7344 10.2188ZM21 14.0156L21.8906 16.875L15.9375 18.75L21.8906 20.625L21 23.4844L10.9219 20.3438L0.890625 23.4844L0 20.625L5.95312 18.75L0 16.875L0.890625 14.0156L10.9219 17.2031L21 14.0156Z" fill="#91C15D"/>
</svg>

<svg width="22" height="24" viewBox="0 0 22 24" fill="none" xmlns="http://www.w3.org/2000/svg"><path d="m9.656 0 2.719 2.719 1.36-1.36c3.28 2.72 4.078 5.672 4.078 6.844A6.802 6.802 0 0 1 11.015 15c-3.797 0-6.844-3.047-6.844-6.797C4.172 4.36 7.828 1.125 9.656 0Zm4.078 10.219c0-2.016-2.718-4.078-2.718-4.078S8.25 8.203 8.25 10.219a2.77 2.77 0 0 0 2.766 2.765c1.5 0 2.718-1.265 2.718-2.765ZM21 14.016l.89 2.859-5.953 1.875 5.954 1.875-.891 2.86-10.078-3.141L.89 23.484 0 20.625l5.953-1.875L0 16.875l.89-2.86 10.032 3.188L21 14.016Z" fill="#91C15D"/></svg>
